X:1
T:06. Hallelujah Chorus
T:G.F.Handel
T:(c) CCARH 2003
T:(c) CCARH 2003
T:(c) CCARH 2003
T:(c) CCARH 2003
T:(c) CCARH 2003
T:(c) CCARH 2003
T:(c) CCARH 2003
Z:(c) CCARH 2003
%%score 1 2 3 4
L:1/8
Q:1/4=100
M:4/4
K:C
V:1 treble nm="Soprano" snm="S."
V:2 treble nm="Alto" snm="A."
V:3 treble-8 nm="Tenor" snm="T."
V:4 bass nm="Bass" snm="B."
V:1
 z8 | z8 |!f! z8 |"Cpower" c3 G A G z2 |"Cpower" c3 G A G z c/ c/ |"Cpower" c c z c/ c/ c c z c | %6
w: |||Hal- le- lu- jah,|Hal- le- lu- jah, Hal- le-|lu- jah, Hal- le- lu- jah, Hal|
"G7sus4" (B c2) B"C" c2 z2 |"Gpower" d3 G e d z2 | d3 G e d z d/ d/ | e d z d/ d/ e d z d | %10
w: le- * lu- jah,|Hal- le- lu- jah,|Hal- le- lu- jah, Hal- le-|lu- jah, Hal- le- lu- jah, Hal-|
"G" (ed)"D7" c2"G" B2 z2 |"G" G4"D" A2"G" B2 |"C" c C c2- c c"G" B2 |"D" A4"G" G2 z d/ d/ | %14
w: le- * lu- jah,|for the Lord|God om- ni- * po- tent|reign- eth, Hal- le-|
"Gpower" c B z d/ d/ c B z d/ d/ |"Gpower" e d z d/ d/ e d z2 |"C""G7sus4""C" z8 |"F""C" z8 | %18
w: lu- jah, Hal- le- lu- jah, Hal- le-|lu- jah, Hal- le- lu- jah,|||
"G7sus4" z4"C" z2 z c/ c/ |"Cpower" c c z c/ c/ c c z c/ c/ |"Cpower" c c z c/ c/ c c z2 | %21
w: Hal- le-|lu- jah, Hal- le- lu- jah, Hal- le-|lu- jah, Hal- le- lu- jah,|
"C" c4"G7sus4" d2"C" e2 |"F" f F f2- f f"C" e2 |"G7sus4" d4"C" c2 z c/ c/ | %24
w: for the Lord|God om- ni- * po- tent|reign- eth, Hal- le-|
"G" B G z B/ B/"D7" c c/ c/"G" d d |"C" G2 z c/ B/ A A"G" z d | %26
w: lu- jah, Hal- le- lu- jah, Hal- le- lu-|jah, Hal- le- lu- jah, Hal-|
"Dsus4" (cB) (cd/c/)"G" B B/ B/ d B |"C" z G/ G/ c G"G" z B/ B/ d B | %28
w: le- * lu- * * jah, Hal- le- lu- jah,|Hal- le- lu- jah Hal- le- lu- jah,|
"C" z G/ G/ e c"G7sus4" z B/ B/"C" c G |"F" z A/ A/ d d z B/ B/"C" c c |"G7sus4" c2 B2"C" c2 c2 | %31
w: Hal- le- lu- jah, Hal- le- lu- jah,|Hal- le- lu- jah, Hal- le- lu- jah,Hal-|le- lu- jah, Hal-|
"F" c2 c2"C" c4 | z4!p! z2"C" G2 |"G" G2"F" F2"C" E2"G7" (D>C) |"C" C8 | z4"G7sus4" E2 (D>C) | %36
w: le- lu- jah!|The|king- dom of this _|world|is be _|
"C" C4- C2"C"!f! e2 |"G" d2"F" c2"C" c2"G7" B2 |"C" c3 B c2"D7" c2 |"G" B3 G"F" A2"G" B2 | %40
w: come * the|king- dom of our|Lord and of his|Christ, and of his|
"C" c4 z4 |"F""Dm7" z8 |"G""C" z8 |"G""C" z8 |"D7" z8 |"G""C" z8 |"F""Dm7" z8 | %47
w: Christ,|||||||
"G7sus4" z4"C" z2 c2 |"G" g2 B2"C" e2 G2 |"D7" c2 B A (B2 A>G) |"G" G4"Gpower" G2 G2 | %51
w: and|He shall reign for|e ver and e- * *|ver. King of|
"Gpower" G8- |"Gpower" G8 |"Gpower" z2 G2 G2 G2 |"Gpower" G8- |"Gpower" G8 | %56
w: Kings,|_|and Lord of|Lords,|_|
"Gpower" z4"Cpower" c2 c2 |"Cpower" c8- |"Cpower" c8 |"Cpower" z2 c2"Dpower" d2 d2 |"Dpower" d8- | %61
w: King of|Kings,|_|and Lord of|Lords,|
"Dpower" d8 |"Dpower" z4"Epower" e2 e2 |"Epower" e8- |"Epower" e8 |"Epower" z3!ff! e"F" f2 f2 | %66
w: _|King of|Kings,|_|and Lord of|
"F" f8- |"G7sus4" f3 f"C" (ed) (ef) |"G" d4 z!f! B c d |"C" G2 z2"Am7" z4 |"D7sus4" z4"G" z2 G2 | %71
w: Lords,|_ and Lord _ of _|Lords, and He shall|reign,|and|
"C" c2 E2"F" A2 C2 |"Dm7" F2 E D"G7sus4" (E2 D>C) |"C" C4"Cpower" z4 |"Cpower" z2!ff! z c f e z c | %75
w: He shall reign for|e- ver and e- * *|ver,|for e- ver and|
"Cpower" f e z2 z4 |"Cpower" z2 z c/ c/ f e z c/ c/ |"Cpower" f e z G"C" G2 c2 | %78
w: e- ver,|Hal- le- lu- jah, Hal- le-|lu- jah, and He shall|
"Am7" e2 c2"F" c2"C/E" G G |"G7sus4" B2 c c (c2 B2) |"C" c2 z2 G2 G2 |"C" c2 z G G2 G2 | %82
w: reign for e- ver, for|e- ver and e- *|ver, King of|Kings, and Lord of|
"C" c2 z2 G2 G2 |"C" c2 z G G2 G2 |"C" c2 z2 z2"C" G2 |"Am7" c2 e2"F" A2"C/E" c2 | %86
w: Lords, King of|Kings, and Lord of|Lords, and|He shall reign for|
"G7sus4" f2 e d d4 |"C" c2 z2"Cpower" c2 c2 |"Cpower" c2 z c c2 c2 | %89
w: e- ver and e-|ver, King of|Kings, and Lord of|
"Cpower" c2 z c/ c/ c c z c/ c/ |"Cpower" c c z c/ c/ c c z c/ c/ |"Cpower" c c z2 z2"C" c2 | %92
w: Lords, Hal- le- lu- jah, Hal- le-|lu- jah, Hal- le- lu- jah, Hal- le-|lu- jah, Hal-|
"F" c4- c2 c2 |"C" c8 |] %94
w: le- * lu-|jah.|
V:2
 z8 | z8 |!f! z8 | G3 G F E z2 | G3 G F E z G/ G/ | A G z G/ G/ A G z G | (FED) D E2 z2 | %7
w: |||Hal- le- lu jah,|Hal- le- lu- jah, Hal- le-|lu- jah, Hal- le- lu- jah, Hal-|le- * * lu- jah,|
 G3 G G G z2 | G3 G G G z G/ G/ | G G z G/ G/ G G z G | G3 ^F G2 z2 | G4 A,2 B,2 | %12
w: Hal- le- lu- jah,|Hal- le- lu- jah, Hal- le-|lu- jah, Hal- le- lu- jah, Hal-|le- lu- jah,|for the Lord|
 C C C2- C C B,2 | A,4 G,2 z G/ G/ | G G z G/ G/ G G z G/ G/ | G G z G/ G/ G G z2 | C4 D2 E2 | %17
w: God om- ni- * po- tent|reign- eth, Hal- le-|lu- jah, Hal- le- lu- jah, Hal- le-|lu- jah, Hal- le- lu- jah,|for the Lord|
 F F, F2- F F E2 | D4 C2 z G/ G/ | A G z G/ G/ A G z G/ G/ | A G z G/ G/ A G z2 | z8 | %22
w: God om- ni- * po- tent|reign- eth, Hal- le-|lu- jah, Hal- le- lu- jah, Hal- le-|lu- jah, Hal- le- lu jah,||
 z4 z2 z G/G/ | F D G G G G/ G/ E C | z D/ D/ B, G, z (F/E/) D (G/F/) | E2 z A/ G/ ^F D G2 | %26
w: Hal- le-|lu- jah,Hal- le- lu- jah, Hal- le- lu- jah,|Hal- le- lu- jah, Hal- * le- lu- *|jah, Hal- le- lu- jah, Hal-|
 G2 ^F2 G2 z D/ D/ | G E z E/ E/ D B, z2 | C4 D2 E2 | F F, F2- F F E2 | D4 C G/ G/ E C | %31
w: le lu- jah, Hal- le-|lu- jah, Hal- le- lu- jah,|for the Lord|God om- ni- * po- tent|reign- eth, Hal- le- lu- jah,|
 z A A A G4 | z4!p! z2 E2 | D2 C2 C2 B,2 | C8 | z2 C2- C2 B,2 | C4- C2!f! G2 | G2 C2 E2 (D>C) | %38
w: Hal- le- lu- jah!|The|king- dom of this|world|is * be-|come * the|king- dom of our _|
 C3 D E2 ^F2 | G3 G F2 F2 | G4 z4 | z8 | z8 | z8 | z8 | z2 G2 C2 E2 | A2 C2 F2 E D | %47
w: Lord and of his|Christ, and of his|Christ,|||||and He shall|reign for e- ver and|
 (E2 D>C) C G E C | z D G D z2 z B, | (CA) G2- G2 ^F2 | G2 D2 G2 G2 | G8- | G8 | z2 G2 G2 G2 | %54
w: e- * * ver, for e- ver|and e- ver, for|e- * ver * and|e- ver, King of|Kings,|_|and Lord of|
 G8- | G8 | z8 | z2 z G A G z G | A G z G/ G/ A G z G/ G/ | A G z2 z4 | z2 z D G ^F z D | %61
w: Lords,|_||for e- ver and|e- ver, Hal- le- lu- jah, Hal- le-|lu- jah,|for e- ver and|
 G ^F z D/ D/ G F z D/ D/ | G ^F z2 z4 | z2 z E A ^G z E | A ^G z E/ E/ A G z E/ E/ | A2 E2 z4 | %66
w: e- ver, Hal- le- lu- jah, Hal- le-|lu- jah,|for e- ver and|e- ver, Hal- le- lu- jah, Hal- le-|lu- jah,|
 z4!ff! A2 A2 | G3 G G2 G2 | G4 z4 | z4!f! z E ^F G | (CB, CD/C/B,) D G F | E3 D C3 C | %72
w: King of|Kings, and Lord of|Lords|and He shall|reign, _ _ _ _ _ and He shall|reign _ _ for|
 (CB,) C C C2 B,2 | C4!ff! C2 C2 | C2 z G A G z G | A G z C C2 C2 | C2 z G/ G/ A G z G/ G/ | %77
w: e- * ver and e- *|ver, King of|Kings, for e- ver, and|e- ver, and Lord of|Lords, Hal- le- lu- jah, Hal- le-|
 A G z2 z2 G2 | C2 G2 A2 C2 | F2 E D D4 | E2 z2 E2 (E>F) | G2 z E E2 (E>F) | G2 z2 E2 E2 | %83
w: lu- jah, and|He shall reign for|e- ver and e-|ver, King of _|Kings, and Lord of _|Lords, King of|
 G2 z E E2 (E>F) | G2 z2 z2 E2 | E2 E2 C2 G2 | D2 G G G4 | G2 z G A G z G | A G z G A G z G | %89
w: Kings, and Lord of _|Lords, and|He shall reign for|e- ver and e-|ver, for e- ver and|e- ver, for e- ver and|
 A G z G/ G/ A G z G/ G/ | A G z G/ G/ A G z G/ G/ | A G z2 z2 E2 | F4- F2 F2 | E8 |] %94
w: e- ver, Hal- le- lu- jah, Hal- le-|lu- jah, Hal- le- lu- jah, Hal- le-|lu- jah, Hal-|le- * lu|jah.|
V:3
 z8 | z8 |!f! z8 | e3 c c c z2 | e3 e c c z c/ c/ | f e z c/ c/ f e z c | d G2 G G2 z2 | %7
w: |||Hal- le- lu- jah,|Hal- le- lu- jah, Hal- le-|lu jah, Hal- le- lu- jah, Hal-|le- * lu- jah,|
 B3 d c B z2 | B3 d c B z d/ d/ | c B z d/ d/ c B z d | (cde) c d2 z2 | G4 A2 B2 | c C c2- c c B2 | %13
w: Hal- le- lu- jah,|Hal- le- lu- jah, Hal- le-|lu- jah, Hal- le- lu- jah, Hal-|le- * * lu- jah,|for the Lord|God om- ni- * po- tent|
 A4 G2 z G/ G/ | e d z d/ d/ e d z d/ d/ | c B z d/ d/ c B z2 | c4 d2 e2 | f F F2- F F E2 | %18
w: reign- eth, Hal- le-|lu- jah, Hal- le- lu- jah, Hal- le-|lu- jah, Hal- le- lu- jah,|for the Lord|God om- ni- * po- tent|
 D4 C2 z c/ c/ | f e z c/ c/ f e z c/ c/ | f e z c/ c/ f e z2 | z2 z c/ c/ B G z c/ c/ | %22
w: reign- eth, Hal- le-|lu- jah, Hal- le- lu- jah, Hal- le-|lu jah, Hal- le- lu- jah,|Hal- le- lu- jah, Hal- le-|
 A A z d/ d/ B G c2- | c2 B2 c e/ e/ g e | G4 A2 B2 | c C c2- c c B2 | A4 G d/ d/ B G | %27
w: lu- jah, Hal- le- lu- jah,Hal- le-|* lu- jah, Hal- le- lu- jah,|for the Lord|God om- ni- * po- tent|reign- eth, Hal- le- lu- jah,|
 z c/ c/ e c z d/ d/ B G | c4 d2 e2 | f F f2- f f e2 | d4 c3 e | f3 f e4 | z4!p! z2 c2 | %33
w: Hal- le- lu- jah, Hal- le- lu- jah,|for the Lord|God om- ni- * po- tent|reign- eth, Hal-|le- lu- jah!|The|
 G2 C2 G3 G | G8 | z4 G2 (F>E) | E4- E2!f! c2 | d2 f2 G3 G | G3 F G2 c2 | d3 c c2 d2 | e4 z4 | z8 | %42
w: king- dom of this|world|is be- *|come * the|king- dom of our|Lord and of his|Christ, and of his|Christ,||
 z4 z2 c2 | g2 B2 e2 G2 | c2 B A B2 A>G | G2 z2 z G c c | c2 z A (dB) c c | (c2 B2) c2 z2 | %48
w: and|He shall reign for|e- ver and e- * *|ver, and He shall|reign for e- * ver and|e- * ver,|
 z4 z c B G | (e d2) e d d z d | d2 B2 z4 | z2 z d e d z d | e d z d/ d/ e d z d/ d/ | e d z2 z4 | %54
w: and He shall|reign _ for e- ver and|e- ver,|for e- ver and|e- ver, Hal- le- lu- jah, Hal- le-|lu- jah,|
 z2 z d e d z d | e d z d/ d/ e d z d/ d/ | e d z2 z4 | z2 z c f e z c | f e z c/ c/ f e z c/ c/ | %59
w: for e- ver and|e- ver, Hal- le- lu- jah,- Hal- le-|lu- jah,|for e- ver and|e- ver, Hal- le- lu- jah, Hal- le-|
 f e z2 z4 | z2 z A B A z A | B A z A/ A/ B A z A/ A/ | B A z2 z4 | z2 z B c B z B | %64
w: lu- jah,|for e- ver and|e- ver, Hal- le- lu- jah, Hal- le-|lu- jah,|for e- ver and|
 c B z B/ B/ c B z B/ B/ | c2 c2 z4 | z4!ff! c2 c2 | d3 d (cB) (cd) | B4 z4 | z!f! G A B E G G2- | %70
w: e- ver, Hal- le- lu- jah, Hal- le-|lu- jah,|King of|Kings, and Lord _ of _|Lords,|and He shall reign, and He|
 G2 ^F2 G2 z2 | z G c B A3 G | F2 G A G4 | G4!ff! c2 c2 | c8- | c3 c c2 c2 | c8- | c2 z e e2 c2 | %78
w: _ shall reign,|and He shall reign for|e- ver and e-|ver, King of|Kings,|_ and Lord of|Lords,|_ and He shall|
 c2 c2 A2 G G | F2 G G G4 | G2 z2 c2 (c>d) | e2 z c c2 (c>d) | e2 z2 c2 c2 | e2 z c c2 (c>d) | %84
w: reign for e- ver, for|e- ver and e-|ver, King of _|Kings, and Lord of _|Lords, King of|Kings, and Lord of _|
 e2 z2 z2 c2 | c2 G2 A2 G2 | B2 c c c2 B2 | e2 z c f e z c | f e z c f e z c | %89
w: Lords, and|He shall reign for|e- ver and e- *|ver, for e- ver and|e- ver, for e- ver and|
 f e z c/ c/ f e z c/ c/ | f e z c/ c/ f e z c/ c/ | f e z2 z2 G2 | A4- A2 A2 | G8 |] %94
w: e- ver, Hal- le- lu- jah, Hal- le-|lu- jah, Hal- le- lu- jah, Hal- le-|lu- jah, Hal-|le- * lu-|jah.|
V:4
 z8 | z8 |!f! z8 | C,3 E, F, C, z2 | C,3 E, F, C, z E,/ E,/ | F, C, z E,/ E,/ F, C, z E, | %6
w: |||Hal- le- lu- jah,|Hal- le- lu- jah, Hal- le-|lu- jah, Hal- le- lu- jah, Hal-|
 (D,C,G,) G, C,2 z2 | G,3 B, C G, z2 | G,3 B, C G, z B,/ B,/ | C G, z B,/ B,/ C G, z B, | %10
w: le- * * lu- jah,|Hal- le- lu- jah,|Hal- le- lu- jah, Hal- le-|lu- jah, Hal- le- lu- jah, Hal-|
 (CB,) A,2 G,2 z2 | G,4 A,2 B,2 | C C, C2- C C B,2 | A,4 G,2 z B,/ B,/ | %14
w: le- * lu- jah,|for the Lord|God om- ni- * po- tent|reign- eth, Hal- le-|
 C G, z B,/ B,/ C G, z B,/ B,/ | C G, z B,/ B,/ C G, z2 | C,4 D,2 E,2 | F, F,, F,2- F, F, E,2 | %18
w: lu- jah, Hal- le- lu- jah, Hal- le-|lu- jah, Hal- le- lu- jah,|for the Lord|God om- ni- * po- tent|
 D,4 C,2 z E,/ E,/ | F, C, z E,/ E,/ F, C, z E,/ E,/ | F, C, z E,/ E,/ F, C, z2 | z8 | z8 | %23
w: reign- eth, Hal- le-|lu- jah, Hal- le- lu- jah, Hal- le-|lu- jah, Hal- le- lu- jah,|||
 z2 z G,/ G,/ E, C, z2 | G,4 A,2 B,2 | C C, C2- C C B,2 | A,4 G,2 z G,/ G,/ | %27
w: Hal- le- lu- jah,|for the Lord|God om- ni- * po tent|reign- eth, Hal- le-|
 E, C, z C/ C/ B, G, z2 | z2 z C/ C/ B, G, z C/ C/ | A, F, z D,/ D,/ G, G, z A,/ A,/ | %30
w: lu- jah, Hal- le- lu- jah,|Hal- le- lu- jah, Hal- le-|lu- jah, Hal- le- lu- jah, Hal- le-|
 F, D, G,3/2 F,/ E,2 z C/ C/ | A, F, A, B, C4 | z4!p! z2 C,2 | B,,2 A,,2 G,,2 (F,>E,) | E,8 | %35
w: lu- jah,Hal- le- lu- jah, Hal- le-|lu- jah,Hal- le- lu- jah!|The|King- dom of this _|world|
 z4 G,,3 G,, | C,4- C,2!f! C2 | B,2 A,2 G,2 (F,>E,) | E,3 D, C,2 A,2 | G,3 E, F,2 D,2 | %40
w: is be-|come * the|king- dom of our _|Lord and of his|Christ, and of his|
 C,3 G, C2 E,2 | A,2 C,2 F,2 E, D, | D,4 C,2 z2 | z2 z G, C C, z E, | (A,^F,) G,2 z D, C, D, | %45
w: Christ, and He shall|reign for e- ver and|e- ver,|for e- ver and|e- * ver, and He shall|
 B,, G, F, G, E,2 z E, | F, C, z2 z2 z F, | G, G,, z G, E, C, z C | B, G, z B, C C, z E, | %49
w: reign, and He shall reign for|e- ver, for|e- ver and e- ver, for|e- ver and e- ver, for|
 (A,^F,) G, C, D, D, z D, | B,,2 G,,2 z4 | z2 z B, C G, z B, | C G, z B,/ B,/ C G, z B,/ B,/ | %53
w: e- * ver, for e- ver and|e- ver,|for e- ver and|e- ver, Hal- le- lu- jah, Hal- le-|
 C G, z2 z4 | z2 z B, C G, z B, | C G, z B,/ B,/ C G, z B,/ B,/ | C G, z2 z4 | z2 z E, F, C, z E, | %58
w: lu- jah,|for e- ver and|e- ver, Hal- le- lu- jah, Hal- le-|lu- jah,|for e- ver and|
 F, C, z E,/ E,/ F, C, z E,/ E,/ | F, C, z2 z4 | z2 z ^F, G, D, z F, | %61
w: e- ver, Hal- le- lu- jah, Hal- le-|lu- jah,|for e- ver and|
 G, D, z ^F,/ F,/ G, D, z F,/ F,/ | G, D, z2 z4 | z2 z ^G, A, E, z G, | %64
w: e- ver, Hal- le- lu jah, Hal- le-|lu- jah,|for e- ver and|
 A, E, z ^G,/ G,/ A, E, z G,/ G,/ | A,2 A,,2 z4 |!ff! z4 A,2 A,2 | B,3 B, C2 C,2 | %68
w: e- ver, Hal- le- lu- jah, Hal- le-|lu- jah,|King of|Kings, and Lord of|
 G,3!f! G,, G,2 B,,2 | E,2 G,,2 C,2 B,, B,, | A,,4 G,,2 z2 | z4 z C, F, E, | D,2 (E,F,) G,2 F, G, | %73
w: Lords, and He shall|reign for e- ver and|e- ver,|and He shall|reign for _ e- ver and|
 E,2 C,2 C2 C2 | C2 z E, F, C, z E, | F, C, z C C2 C2 | C2 z E,/ E,/ F, C, z E,/ E,/ | %77
w: e- ver, King of|Kings, for e- ver and|e- ver, and Lord of|Lords, Hal- le- lu- jah, Hal- le-|
 F, C, z C, C2 E,2 | A,2 C,2 F,2 E, E, | D,2 C, C, G,4 | C,2 z2 C,2 C,2 | C2 z C, C,2 C,2 | %82
w: lu- jah, and He shall|reign for e- ver, for|e- ver and e-|ver, King of|Kings, and Lord of|
 C2 z2 C,2 C,2 | C2 z C, C,2 C,2 | C2 z C, C2 E,2 | A,2 C,2 F,2 E, E, | D,2 C, C, G,4 | %87
w: Lords, King of|Kings, and Lord of|Lords, and He shall|reign for e- ver and|e- ver, and e-|
 C,2 z E, F, C, z E, | F, C, z E, F, C, z E, | F, C, z E,/ E,/ F, C, z E,/ E,/ | %90
w: ver, for e- ver and|e- ver, for e- ver and|e- ver, Hal- le- lu- jah, Hal- le-|
 F, C, z E,/ E,/ F, C, z E,/ E,/ | F, C, z2 z2 C,2 | F,4- F,2 F,2 | C,8 |] %94
w: lu- jah, Hal- le- lu- jah, Hal- le-|lu jah, Hal-|le- * lu-|jah.|

